X:75
T:No.75 The Wedding Jig
C:jig
M:6/8
L:1/8
K:G
G,A,B, G,A,B,|GEF G2E|EB,E G2A|BGE EEF|
G,A,B, G,A,B,|GEF G2E|DA,D FAd|AFD DEF:|
GAG GFG|AGA ABc|BAG Bcd|
ede gfg|ded d^cd|B=cB BAG|
FGA BAG|[1AFD DEF:|[2AFD DFA||
d^ce dce|dAF G2E|EB,E G2A|
BAG AB^c|d^ce dce|dAF G2E|
DA,D F2d|[1AFD DFA:|[2AFD DEF||
